X:1
T: Ballochduie
C:C Sherrit
R:Strathspey
Q:128
K:D
M:4/4
L:1/16
F3G|:A4 A3B A4 d4|f4 f3e d3c BA3|G4 E4 e4 e3d|c3d c3B A3G F3G|
A4 A3B A4 d4|f4 f3e d3c BA3|B3A G3F E3G Ac3|1d4 ((3e2d2c2) d4 F3G:|2d4 ((3e2d2c2) d4 f3g|
|:a4 a3f d4 f4|a3f ((3g2f2e2) d4 Ad3|B3c d3B A3d cd3|c4 e4 e4 f3g|
|1a4 a3f d4 f4|a3f ((3g2f2e2) d4 A4|B3A G3F E3G Ac3|d4 ((3e2d2c2) d4 f3g:|
|2f3A AA3 B3G Bd3|c3d ec3 d4 A4|B3A G3F E3G Ac3|d4 ((3e2d2c2) d4||
